X:3141
T:Cock and the Hen, The
R:slip jig
N:Also in F#m, see #14
Z:id:hn-slipjig-51
M:9/8
K:Bm
~B3 BdB fef|~B3 BdB cBA|~B3 BdB f2g|afd edB dBA:|
|:afd def g2b|afd def edB|afd def g2e|fed edB dBA:|


